assets/icons/qvision/notifications_paused.svg

<svg xmlns="http://www.w3.org/2000/svg" height="24" viewBox="0 0 24 24" width="24"><path d="M0 0h24v24H0z" fill="none"/><path d="M12 22c1.1 0 2-.9 2-2h-4c0 1.1.89 2 2 2zm6-6v-5c0-3.07-1.64-5.64-4.5-6.32V4c0-.83-.67-1.5-1.5-1.5s-1.5.67-1.5 1.5v.68C7.63 5.36 6 7.93 6 11v5l-2 2v1h16v-1l-2-2zm-3.5-6.2l-2.8 3.4h2.8V15h-5v-1.8l2.8-3.4H9.5V8h5v1.8z"/></svg>

<svg width="24" height="24" viewBox="0 0 24 24" fill="none" xmlns="http://www.w3.org/2000/svg">
<g clip-path="url(#clip0_147_6543)">
<path d="M12 22C13.1 22 14 21.1 14 20H10C10 21.1 10.89 22 12 22ZM18 16V11C18 7.93 16.36 5.36 13.5 4.68V4C13.5 3.17 12.83 2.5 12 2.5C11.17 2.5 10.5 3.17 10.5 4V4.68C7.63 5.36 6 7.93 6 11V16L4 18V19H20V18L18 16ZM14.5 9.8L11.7 13.2H14.5V15H9.5V13.2L12.3 9.8H9.5V8H14.5V9.8Z" fill="#323232"/>
</g>
<defs>
<clipPath id="clip0_147_6543">
<rect width="24" height="24" fill="white"/>
</clipPath>
</defs>
</svg>
